X:1
T:Lord of the Dance
T:Lord of the Dance
T:19th Century Shaker Tune
T:Sydney Carter, 1963
T:19th Century Shaker tune, adapted by Sydney Carter, 1963 © 1963, Stainer &amp; Bell Ltd. (administered by Hope Publishing Company, Carol Stream IL 6018)
T:19th Century Shaker tune, adapted by Sydney Carter, 1963 © 1963, Stainer &amp; Bell Ltd. (administered by Hope Publishing Company, Carol Stream IL 6018)
C:19th Century Shaker Tune
Z:19th Century Shaker tune, adapted by Sydney Carter, 1963
Z:© 1963, Stainer & Bell Ltd. (administered by Hope Publishing Company, Carol Stream IL 6018)
%%score ( 1 2 ) 3
L:1/8
M:2/2
K:G
V:1 treble 
V:2 treble 
V:3 bass 
V:1
"^Unison" D2 |"^G" G2 (GG)"^Em" BA Bc |"^Bm" d2 (dd)"^Em" B2- BB |"^Am" A2 (AA) A2 AB | %4
w: 1.~I|danced in~the * morn- ing when the|world was~be- * gun,~and * I|danced in~the * moon and the|
w: 2.~I|danced for~the * scribe ~ and the|Phar- i- * see,~but * they|would not * dance and they|
w: 3.~I|danced on~the * sab- bath when I|cured the * lame, * the|ho- ly * peo- ple ~|
w: 4.~I|danced on~a * Fri- day and the|sky turned * black; * it’s|hard to * dance with the|
w: 5.~They|cut me * down ~ and I|leapt up * high, * ~|I am~the * life that- ’ll|
 cB AG"^D7" [A,DF]2 DD |"^G" G2 (GG)"^Em" BA Bc |"^Bm" d2 dd"^Em" B2- BB | %7
w: stars ~ and the sun, and I|came down~from * heav- en and I|danced on the earth, * At|
w: would not fol- low me; I ~|danced for~the * fish- er- men, for|James and John; they * came|
w: said it was a shame; they whipped|and they * stripped and they hung|me high; and they * left|
w: dev- il on your back; they ~|bur- ied * my bod- y and|they thought I’d gone, * but|
w: nev- er, nev- er die; I’ll ~|live in * you ~ if you’ll|live in ~ me; * ~|
"^Am" A2 (AA)"^D7" [DB]2 (AA) |"^C" [CG]2 [CG]2"^G" [B,G]4 ||"^Refrain""^G" [DGBd]4"^Bm" B3 A | %10
w: Beth- le- * hem I *|had my birth.||
w: to me * and the *|dance went on.||
w: me there * on a *|cross to die.|Dance, then, wher-|
w: I am~the * dance and~I *|still go on.||
w: I am~the * Lord of~the *|Dance, said he.||
 Bc BA"^Em" [EG]4 |"^G" B2 BB d2 cB |"^Am" A2 A2"^D" [DFA]2 DD |"^G" [DG]2 [DG]2"^C" G3 A | %14
w: ||||
w: ||||
w: ev- er you may be;|I am the Lord of the|Dance, said he. And I’ll|lead you all wher-|
w: ||||
w: ||||
"^G" BA"^D7" Bc"^G" d2 cB |"^C" A2 A2"^D7" B2 BA |"^G" [B,G]2"^C" [CG]2"^G" !fermata![B,G]2 |] %17
w: |||
w: |||
w: ev- er you may be, And I’ll|lead you all in the|dance, said he.|
w: |||
w: |||
V:2
 x2 | [B,D]4 [EG]4 | [DFB]4 [EG]4 | [CE]4 E4 | [EA]2 E2 x [A,C]2 x | [B,D]4 [EG]4 | [DFB]4 [EG]4 | %7
 [CE]4 C2 x2 | x8 || x4 [DF]4 | [DF]4 x4 | D4 [DG]4 | [CE]4 x4 | x4 C4 | [DG]2 [DF]2 [DG]4 | %15
 [CE]4 [DF]4 | x6 |] %17
V:3
 D,2 | [G,,G,]2 [F,,F,]2 [E,,E,]4 | [B,,,B,,]4 [E,,E,]4 | [A,,A,]4 [C,C]2 [B,,B,]2 | %4
 [A,,A,]2 [C,C]2 D,2 [D,,D,]2 | [G,,G,]2 [F,,F,]2 [E,,E,]4 | [B,,,B,,]4 [E,,E,]4 | %7
 [A,,A,]4 [D,F,]4 | [G,,E,]2 [G,,E,]2 [G,,D,]4 || G,,2 [G,B,]2 D,2 [F,B,]2 | %10
 B,,2 [F,B,]2 E,2 [G,B,]2 | [G,,G,]2 [G,B,]2 B,,2 [D,G,]2 | C,2 [E,A,]2 D,2 [C,A,]2 | %13
 [B,,G,]2 [A,,F,]2 [G,,E,]4 | [D,,D,]2 [C,,C,]2 [B,,,B,,]4 | [C,,C,]2 [A,,,A,,]2 [D,,D,]4 | %16
 [G,,D,]2 [G,,E,]2 !fermata![G,,D,]2 |] %17

